X: 1
T: Haymaker's, The
M: 6/8
L: 1/8
R: jig
K: Gmaj
|: dzd dBd | gfg B2B | cBc ABc | e2d B2c | 
dzd dBd | gfg B2g | fed ecA | G3 G3 :|
|: gzg gfe | dgd B2B | cBc ABc | e2d B2d | 
gzg gfe | dgd B2g | fed ecA | G3 G3 :|
